svg/vscode.svg

<svg width="48" height="48" viewBox="0 0 512 512" fill="none" xmlns="http://www.w3.org/2000/svg">
    <path
        d="M471.42 74.7799L375.763 27.5894C370.252 25.1064 364.109 24.3864 358.173 25.5279C352.237 26.6693 346.799 29.6166 342.602 33.9665L30.1245 319.66C28.1928 321.451 26.6517 323.622 25.5979 326.036C24.544 328.45 24 331.056 24 333.69C24 336.324 24.544 338.93 25.5979 341.344C26.6517 343.758 28.1928 345.929 30.1245 347.72L55.6329 370.677C58.9809 373.994 63.4357 375.959 68.1431 376.195C72.8504 376.43 77.479 374.919 81.1413 371.953L457.39 86.2586C470.144 77.3307 488 84.9832 488 101.564V100.288C488 88.8095 481.623 78.6061 471.42 74.7799Z"
        fill="#2277BB" />
    <path
        d="M471.42 438.275L375.763 484.19C370.252 486.673 364.109 487.393 358.173 486.251C352.237 485.11 346.799 482.162 342.602 477.813L30.1245 193.394C28.1928 191.603 26.6517 189.433 25.5979 187.019C24.544 184.604 24 181.999 24 179.365C24 176.73 24.544 174.125 25.5979 171.71C26.6517 169.296 28.1928 167.126 30.1245 165.335L55.6329 141.102C58.9809 137.785 63.4357 135.82 68.1431 135.584C72.8504 135.349 77.479 136.86 81.1413 139.827L457.39 425.52C470.144 435.724 488 426.796 488 410.215V411.491C488 422.97 481.623 433.173 471.42 438.275Z"
        fill="#0088CC" />
    <path
        d="M375.763 484.189C370.252 486.672 364.109 487.392 358.173 486.251C352.237 485.109 346.799 482.162 342.602 477.812C354.081 489.291 371.937 481.639 371.937 466.333V46.7206C371.937 31.4156 354.081 22.4877 342.602 33.9664C347.045 29.5507 352.785 26.6732 358.982 25.7552C365.178 24.8372 371.506 25.9269 377.039 28.8648L472.695 74.7798C481.623 78.6061 488 88.8095 488 100.288V411.49C488 422.969 481.623 433.173 472.695 438.274"
        fill="#1199FF" />
</svg>

<svg width="64" height="64" viewBox="0 0 512 512" fill="none" xmlns="http://www.w3.org/2000/svg"><path d="M471.42 74.78l-95.657-47.19a29.334 29.334 0 00-33.161 6.377L30.125 319.66a19.135 19.135 0 000 28.06l25.508 22.957a19.137 19.137 0 0012.51 5.518 19.138 19.138 0 0012.998-4.242L457.39 86.259C470.144 77.33 488 84.983 488 101.564v-1.276c0-11.478-6.377-21.682-16.58-25.508z" fill="#27B"/><path d="M471.42 438.275l-95.657 45.915a29.336 29.336 0 01-33.161-6.377L30.125 193.394a19.13 19.13 0 010-28.059l25.508-24.233a19.134 19.134 0 0125.508-1.275L457.39 425.52c12.754 10.204 30.61 1.276 30.61-15.305v1.276c0 11.479-6.377 21.682-16.58 26.784z" fill="#08C"/><path d="M375.763 484.189a29.338 29.338 0 01-33.161-6.377c11.479 11.479 29.335 3.827 29.335-11.479V46.721c0-15.305-17.856-24.233-29.335-12.755a29.334 29.334 0 0134.437-5.101l95.656 45.915C481.623 78.606 488 88.81 488 100.288V411.49c0 11.479-6.377 21.683-15.305 26.784" fill="#19F"/></svg>
